UI/Data/SVG/review_outline_24px.svg

<svg width="24" height="24" viewBox="0 0 24 24" fill="none" xmlns="http://www.w3.org/2000/svg">
<path d="M7.00003 20C6.69711 19.9989 6.3984 19.9291 6.12642 19.7957C5.85445 19.6623 5.61633 19.4689 5.43003 19.23L2.16003 14.15L3.84003 13.07L7.06003 18.07L18.22 4L19.78 5.25L8.57003 19.25C8.38173 19.4852 8.14273 19.6748 7.87087 19.8047C7.59901 19.9345 7.30132 20.0013 7.00003 20ZM22 18H12V20H22V18ZM22 14H15V16H22V14ZM22 10H18V12H22V10Z" fill="#0F1621"/>
</svg>

<svg xmlns="http://www.w3.org/2000/svg" width="24" height="24" viewBox="0 0 24 24"><rect width="24" height="24" style="fill:none"/><path d="M7,20H7a2,2,0,0,1-1.57-.77L2.16,14.15l1.68-1.08,3.22,5L18.22,4l1.56,1.25-11.21,14A2,2,0,0,1,7,20Zm15-2H12v2H22Zm0-4H15v2h7Zm0-4H18v2h4Z"/></svg>
